www/assets/icons/bed.svg

<svg xmlns="http://www.w3.org/2000/svg" width="24" height="24" viewBox="0 0 24 24" fill='currentColor'><path d="M21 10.78V8c0-1.65-1.35-3-3-3h-4c-.77 0-1.47.3-2 .78-.53-.48-1.23-.78-2-.78H6C4.35 5 3 6.35 3 8v2.78c-.61.55-1 1.34-1 2.22v6h2v-2h16v2h2v-6c0-.88-.39-1.67-1-2.22M14 7h4c.55 0 1 .45 1 1v2h-6V8c0-.55.45-1 1-1M5 8c0-.55.45-1 1-1h4c.55 0 1 .45 1 1v2H5z"/></svg>

<svg width="24" height="24" viewBox="0 0 24 24" xmlns="http://www.w3.org/2000/svg" fill='currentColor'><path d="M21 10.78V8C21 6.35 19.65 5 18 5H14C13.23 5 12.53 5.3 12 5.78C11.47 5.3 10.77 5 10 5H6C4.35 5 3 6.35 3 8V10.78C2.39 11.33 2 12.12 2 13V19H4V17H20V19H22V13C22 12.12 21.61 11.33 21 10.78ZM14 7H18C18.55 7 19 7.45 19 8V10H13V8C13 7.45 13.45 7 14 7ZM5 8C5 7.45 5.45 7 6 7H10C10.55 7 11 7.45 11 8V10H5V8Z"/></svg>
